X: 2053
T: La Prince
%R: _
B: Henry Playford "Apollo's Banquet", London 1687 (5th Edition)
F: https://archive.org/details/apollosbanquetco01rugg
Z: 2017 John Chambers <jc:trillian.mit.edu>
M: C|
L: 1/8
K: G
% - - - - - - - - - -
G2 |\
d2B2 e2dc | B2 G4 A2 |\
B2c2 d2ef | g2 f4 z :: g |\
a3b g3f | e4 a3g |\
fefg e3d | d4 zdef |
g4 zefg | a2 f4 a2 |\
bag2 g2g>f | g6 z :: G |\
d4 B3(A/B/) | c3B A3c |\
B4 G3G | d4 B3(A/B/) |\
e3=f ^c3d | d6 z :|
|: d |\
a4 f3(e/f/) | g3a b3f |\
f4 e3a | f3(e/d/) g3B |\
e3A A3G | G8 |][M:3/2] \
B3AB2 G3AB2 | A3Bc2 B3AG2 |
B3AB2 c3de2 | ^c3B^c2 d6 ::\
a3ga2 f3gf2 | e3fd2 g3fe2 |\
d3cB2 e3dc2 | A3GF2 G6 |]
% - - - - - - - - - -

%%sep 1 1 500
%%sep 1 1 500

